X:1
T:Title
%%score { 1 | ( 2 3 ) }
L:1/8
Q:1/4=100
M:4/4
K:G
V:1 treble nm="Grand Piano"
V:2 treble 
V:3 treble 
V:1
 GGGG G2 B2 | d4 B4 | [FA][FA][FA][FA] [FA]4 | BBBB B4 | GGGG G2 B2 | d4 B2 [DG]2 | %6
 [EA]2 [EA]2 [DB]2 [CFA]2 |[M:3/4] [B,G]6 |[M:1/4] D2 |[M:4/4] D2 G2 G2 [FA]2 | B2 B2 B2 cB | %11
 [FA]2 [FA]2 [FA]2 G2 |[M:3/4] B2 A2 G2 |[M:1/4] E2 |[M:4/4] D2 G2 G2 [FA]2 | B2 B2 B2 cB | %16
 [DFA]2 [DFA]2 [DFA]2 [B,G]2 |[M:9/8] [DGB]2 [CFA]- [CFA] [B,G]2- [B,G] z z | %18
[M:4/4] [EGc][EGc][EGc][EGc] [EGc]2 [EGc]2 | [EGc]4 [EGc]4 | BBBB B2 B2 | B4 d4 | d2 d2 B2 B2 | %23
 G2 G2 D2 D2 | [B,DG]2 [DFA]2 [DGB]2 [EGc]2 |[M:2/4] [DGB]4 | [DFA]4 |[M:4/4] [DGB]6 z2 | %28
 d2 d2 B2 B2 | G2 G2 D2 D2 | [B,DG]2 [DFA]2 [DGB]2 [EGc]2 |[M:2/4] [DGB]4 | [B,FA]4 | %33
[M:4/4] [B,G]6 z2 |] %34
V:2
 [G,B,D][G,B,D][G,B,D][G,B,D] [G,B,D]2 [G,DG]2 | [G,B,G]4 [G,DG]4 | [D,D][D,D][D,D][D,D] [D,D]4 | %3
 [G,DG][G,DG][G,DG][G,DG] [G,DG]4 | [G,B,D][G,B,D][G,B,D][G,B,D] [G,B,D]2 [G,DG]2 | %5
 [G,B,G]4 [G,DG]2[K:bass] B,,2 | [C,C]2 [C,C]2 [D,G,]2 D,2 |[M:3/4] G,,6 |[M:1/4] [G,B,]2 | %9
[M:4/4] [G,B,]2 [G,B,D]2 [G,B,D]2 [D,D]2 | z4 z2 .E2 | [D,D]2 [D,D]2 [D,D]2 [D,B,]2 | %12
[M:3/4] [D,G,D]2 [D,CD]2 [G,B,D]2 |[M:1/4] [G,C]2 |[M:4/4] [G,B,]2 [G,B,D]2 [G,B,D]2 [D,D]2 | %15
 z4 z2 .E2 | D,2 D,2 D,2 D,2 |[M:9/8] D,2 D,- D, G,2- G, z z |[M:4/4] C,C,C,C, C,2 C,2 | C,4 C,4 | %20
 [G,DG][G,DG][G,DG][G,DG] [G,DG]2 [G,DG]2 | [G,DG]4 [G,B,G]4 | D2 D2[K:bass] B,2 B,2 | %23
 G,2 G,2 D,2 D,2 | G,2 D,2 G,2 C,2 |[M:2/4] D,4 | D,4 |[M:4/4] G,6 z2 | D2 D2 B,2 B,2 | %29
 G,2 G,2 D,2 D,2 | G,2 D,2 G,2 C,2 |[M:2/4] D,4 | D,4 |[M:4/4] G,6 z2 |] %34
V:3
 x8 | x8 | x8 | x8 | x8 | x6[K:bass] x2 | x8 |[M:3/4] x6 |[M:1/4] x2 |[M:4/4] x8 | %10
 [G,DG]2 [G,DG]2 [G,DG]2 [G,G]-[G,DG] | x8 |[M:3/4] x6 |[M:1/4] x2 |[M:4/4] x8 | %15
 [G,DG]2 [G,DG]2 [G,DG]2 [G,G]-[G,DG] | x8 |[M:9/8] x9 |[M:4/4] x8 | x8 | x8 | x8 | x4[K:bass] x4 | %23
 x8 | x8 |[M:2/4] x4 | x4 |[M:4/4] x8 | x8 | x8 | x8 |[M:2/4] x4 | x4 |[M:4/4] x8 |] %34

